Hatter-kde/actions/22/view-presentation.svg

<?xml version="1.0" encoding="UTF-8"?>
<svg viewBox="0 0 22 22" xmlns="http://www.w3.org/2000/svg">
 <defs id="defs3051">
  <style id="current-color-scheme" type="text/css">.ColorScheme-Text {
        color:#363636;
      }</style>
 </defs>
 <path class="ColorScheme-Text" d="m2 3v12h18v-12h-18zm1 1h16v10h-16v-10zm6 2v6l4-3-4-3zm0 10v2h-1v1h6v-1h-1v-2h-1v2h-2v-2h-1z" fill="currentColor"/>
</svg>

<svg xmlns="http://www.w3.org/2000/svg" viewBox="0 0 22 22">
  <defs id="defs3051">
    <style type="text/css" id="current-color-scheme">
      .ColorScheme-Text {
        color:#363636;
      }
      </style>
  </defs>
 <path 
    style="fill:currentColor;fill-opacity:1;stroke:none" 
    d="M 2 3 L 2 15 L 20 15 L 20 3 L 2 3 z M 3 4 L 19 4 L 19 14 L 3 14 L 3 4 z M 9 6 L 9 12 L 13 9 L 9 6 z M 9 16 L 9 18 L 8 18 L 8 19 L 14 19 L 14 18 L 13 18 L 13 16 L 12 16 L 12 18 L 10 18 L 10 16 L 9 16 z "
	class="ColorScheme-Text"
    />  
</svg>
